vivaldi-source/chromium/chrome/browser/resources/settings/chromeos/images/keyboard_shortcut.svg

<svg width="48" height="48" viewBox="0 0 48 48" fill="none" xmlns="http://www.w3.org/2000/svg"><path d="M11 17H37V37H11V17Z" fill="#D2E3FC"/><path fill-rule="evenodd" clip-rule="evenodd" d="M8 17C8 15.3431 9.34315 14 11 14H37C38.6569 14 40 15.3431 40 17V37C40 38.6569 38.6569 40 37 40H11C9.34315 40 8 38.6569 8 37V17ZM11 17V37H37V17H11Z" fill="#8AB4F8"/><path fill-rule="evenodd" clip-rule="evenodd" d="M13.5 21C13.5 20.4477 13.9477 20 14.5 20H15.5C16.0523 20 16.5 20.4477 16.5 21V22C16.5 22.5523 16.0523 23 15.5 23H14.5C13.9477 23 13.5 22.5523 13.5 22V21ZM18 33H30V35H18V33ZM20.5 20C19.9477 20 19.5 20.4477 19.5 21V22C19.5 22.5523 19.9477 23 20.5 23H21.5C22.0523 23 22.5 22.5523 22.5 22V21C22.5 20.4477 22.0523 20 21.5 20H20.5ZM25.5 21C25.5 20.4477 25.9477 20 26.5 20H27.5C28.0523 20 28.5 20.4477 28.5 21V22C28.5 22.5523 28.0523 23 27.5 23H26.5C25.9477 23 25.5 22.5523 25.5 22V21ZM32.5 20C31.9477 20 31.5 20.4477 31.5 21V22C31.5 22.5523 31.9477 23 32.5 23H33.5C34.0523 23 34.5 22.5523 34.5 22V21C34.5 20.4477 34.0523 20 33.5 20H32.5ZM25.5 28C25.5 27.4477 25.9477 27 26.5 27H27.5C28.0523 27 28.5 27.4477 28.5 28V29C28.5 29.5523 28.0523 30 27.5 30H26.5C25.9477 30 25.5 29.5523 25.5 29V28ZM32.5 27C31.9477 27 31.5 27.4477 31.5 28V29C31.5 29.5523 31.9477 30 32.5 30H33.5C34.0523 30 34.5 29.5523 34.5 29V28C34.5 27.4477 34.0523 27 33.5 27H32.5ZM19.5 28C19.5 27.4477 19.9477 27 20.5 27H21.5C22.0523 27 22.5 27.4477 22.5 28V29C22.5 29.5523 22.0523 30 21.5 30H20.5C19.9477 30 19.5 29.5523 19.5 29V28ZM14.5 27C13.9477 27 13.5 27.4477 13.5 28V29C13.5 29.5523 13.9477 30 14.5 30H15.5C16.0523 30 16.5 29.5523 16.5 29V28C16.5 27.4477 16.0523 27 15.5 27H14.5Z" fill="#8AB4F8"/><path fill-rule="evenodd" clip-rule="evenodd" d="M16 8C15.4477 8 15 8.44772 15 9V20.8681H33V9C33 8.44772 32.5523 8 32 8H24H16ZM23.4184 26.8865L15 20.8682H33L24.5816 26.8865C24.2337 27.1352 23.7663 27.1352 23.4184 26.8865Z" fill="#4285F4"/><path d="M25 12L28 15L25 18" stroke="white" stroke-width="2" stroke-linecap="square" stroke-linejoin="round"/><path d="M27 15H21C20.4477 15 20 15.4477 20 16V19" stroke="white" stroke-width="2" stroke-linejoin="round"/></svg>

<svg width="48" height="48" viewBox="0 0 48 48" fill="none" xmlns="http://www.w3.org/2000/svg"><path d="M11 17h26v20H11V17Z" fill="#D2E3FC"/><path fill-rule="evenodd" clip-rule="evenodd" d="M8 17a3 3 0 0 1 3-3h26a3 3 0 0 1 3 3v20a3 3 0 0 1-3 3H11a3 3 0 0 1-3-3V17Zm3 0v20h26V17H11Z" fill="#8AB4F8"/><path fill-rule="evenodd" clip-rule="evenodd" d="M13.5 21a1 1 0 0 1 1-1h1a1 1 0 0 1 1 1v1a1 1 0 0 1-1 1h-1a1 1 0 0 1-1-1v-1ZM18 33h12v2H18v-2Zm2.5-13a1 1 0 0 0-1 1v1a1 1 0 0 0 1 1h1a1 1 0 0 0 1-1v-1a1 1 0 0 0-1-1h-1Zm5 1a1 1 0 0 1 1-1h1a1 1 0 0 1 1 1v1a1 1 0 0 1-1 1h-1a1 1 0 0 1-1-1v-1Zm7-1a1 1 0 0 0-1 1v1a1 1 0 0 0 1 1h1a1 1 0 0 0 1-1v-1a1 1 0 0 0-1-1h-1Zm-7 8a1 1 0 0 1 1-1h1a1 1 0 0 1 1 1v1a1 1 0 0 1-1 1h-1a1 1 0 0 1-1-1v-1Zm7-1a1 1 0 0 0-1 1v1a1 1 0 0 0 1 1h1a1 1 0 0 0 1-1v-1a1 1 0 0 0-1-1h-1Zm-13 1a1 1 0 0 1 1-1h1a1 1 0 0 1 1 1v1a1 1 0 0 1-1 1h-1a1 1 0 0 1-1-1v-1Zm-5-1a1 1 0 0 0-1 1v1a1 1 0 0 0 1 1h1a1 1 0 0 0 1-1v-1a1 1 0 0 0-1-1h-1Z" fill="#8AB4F8"/><path fill-rule="evenodd" clip-rule="evenodd" d="M16 8a1 1 0 0 0-1 1v11.868h18V9a1 1 0 0 0-1-1H16Zm7.418 18.887L15 20.867h18l-8.418 6.019a1 1 0 0 1-1.164 0Z" fill="#4285F4"/><path d="m25 12 3 3-3 3" stroke="#fff" stroke-width="2" stroke-linecap="square" stroke-linejoin="round"/><path d="M27 15h-6a1 1 0 0 0-1 1v3" stroke="#fff" stroke-width="2" stroke-linejoin="round"/></svg>
